assets/img/icons/duotone-icons/Home/Chair#2.svg

<?xml version="1.0" encoding="UTF-8"?>
<svg width="24px" height="24px" viewBox="0 0 24 24" version="1.1" xmlns="http://www.w3.org/2000/svg" xmlns:xlink="http://www.w3.org/1999/xlink">
    <!-- Generator: Sketch 52.2 (67145) - http://www.bohemiancoding.com/sketch -->
    <title>Stockholm-icons / Home / Chair#2</title>
    <desc>Created with Sketch.</desc>
    <g id="Stockholm-icons-/-Home-/-Chair#2" stroke="none" stroke-width="1" fill="none" fill-rule="evenodd">
        <rect id="bound" x="0" y="0" width="24" height="24"></rect>
        <path d="M6.54246133,21.5014597 L8.1406184,15.5370564 C8.28356021,15.0035903 8.83189716,14.6870078 9.36536327,14.8299496 C9.89882937,14.9728914 10.2154119,15.5212284 10.07247,16.0546945 L8.47431299,22.0190978 C8.33137118,22.5525639 7.78303422,22.8691464 7.24956812,22.7262046 C6.71610201,22.5832628 6.39951952,22.0349258 6.54246133,21.5014597 Z M17.4495897,21.4711096 C17.5925315,22.0045757 17.275949,22.5529126 16.7424829,22.6958545 C16.2090168,22.8387963 15.6606799,22.5222138 15.517738,21.9887477 L14.2148496,17.126302 C14.0719078,16.5928359 14.3884903,16.0444989 14.9219564,15.9015571 C15.4554225,15.7586153 16.0037595,16.0751978 16.1467013,16.6086639 L17.4495897,21.4711096 Z" id="Combined-Shape" fill="#335EEA" opacity="0.3"></path>
        <path d="M7.36092084,1 L16.6390792,1 C17.7436487,1 18.6390792,1.8954305 18.6390792,3 C18.6390792,3.11016172 18.6299775,3.22013512 18.611867,3.32879797 L17.0696334,12.5821995 C17.0294511,12.8232935 16.820856,13 16.5764365,13 L7.42356354,13 C7.17914397,13 6.97054891,12.8232935 6.93036658,12.5821995 L5.388133,3.32879797 C5.20654289,2.23925733 5.94258223,1.20880226 7.03212287,1.02721215 C7.14078572,1.00910168 7.25075912,1 7.36092084,1 Z M5.5,14 L18.5,14 C19.3284271,14 20,14.6715729 20,15.5 C20,16.3284271 19.3284271,17 18.5,17 L5.5,17 C4.67157288,17 4,16.3284271 4,15.5 C4,14.6715729 4.67157288,14 5.5,14 Z" id="Combined-Shape" fill="#335EEA"></path>
    </g>
</svg>

<svg width="24" height="24" viewBox="0 0 24 24" xmlns="http://www.w3.org/2000/svg"><g fill="none" fill-rule="evenodd"><path d="M0 0h24v24H0z"/><path d="M6.542 21.501l1.599-5.964a1 1 0 111.931.518l-1.598 5.964a1 1 0 01-1.932-.518zm10.908-.03a1 1 0 01-1.932.518l-1.303-4.863a1 1 0 011.932-.517l1.303 4.862z" fill="#335EEA" opacity=".3"/><path d="M7.36 1h9.28a2 2 0 011.972 2.329l-1.542 9.253a.5.5 0 01-.494.418H7.424a.5.5 0 01-.494-.418L5.388 3.33A2 2 0 017.361 1zM5.5 14h13a1.5 1.5 0 010 3h-13a1.5 1.5 0 010-3z" fill="#335EEA"/></g></svg>
